src/lib/packages/icons/src/assets/filled/alarm-check-alt.svg

<svg width="24" height="24" viewBox="0 0 24 24" fill="none" xmlns="http://www.w3.org/2000/svg">
<path fill-rule="evenodd" clip-rule="evenodd" d="M19 14H17C15 14 14 15 14 17V19C14 21 15 22 17 22H19C21 22 22 21 22 19V17C22 15 21 14 19 14ZM19.6001 17.52L17.94 19.19C17.84 19.28 17.7201 19.3301 17.5801 19.3301C17.4501 19.3301 17.32 19.28 17.23 19.19L16.3999 18.3501C16.1999 18.1601 16.1999 17.8399 16.3999 17.6499C16.5899 17.4499 16.9101 17.4499 17.1001 17.6499L17.5801 18.1299L18.8999 16.8101C19.0899 16.6201 19.4101 16.6201 19.6001 16.8101C19.8001 17.0101 19.8001 17.32 19.6001 17.52ZM17.4751 3.57607C17.1801 3.28607 17.1751 2.81104 17.4641 2.51504C17.7561 2.21904 18.2299 2.21405 18.5259 2.50405L20.5259 4.46401C20.8209 4.75401 20.8261 5.22905 20.5371 5.52505C20.3901 5.67505 20.195 5.75002 20.001 5.75002C19.812 5.75002 19.6221 5.67903 19.4761 5.53603L17.4751 3.57607ZM4.53005 3.53005L2.53005 5.53005C2.38405 5.67605 2.19202 5.75002 2.00002 5.75002C1.80802 5.75002 1.61599 5.67705 1.46999 5.53005C1.17699 5.23705 1.17699 4.76202 1.46999 4.46902L3.46999 2.46902C3.76299 2.17602 4.23803 2.17602 4.53103 2.46902C4.82403 2.76202 4.82305 3.23705 4.53005 3.53005ZM17 12.5H18.667C18.667 12.5 19 12.479 19 12C19 7.58002 15.42 4.00002 11 4.00002C6.58002 4.00002 3.00002 7.58002 3.00002 12C3.00002 14.704 4.344 17.0901 6.397 18.5371L4.46902 20.47C4.17702 20.763 4.17697 21.239 4.47097 21.531C4.61697 21.677 4.80902 21.75 5.00002 21.75C5.19202 21.75 5.38503 21.6761 5.53103 21.5301L7.74905 19.3059C8.74305 19.7489 9.84105 20 10.999 20C11.413 20 11.8271 19.969 12.2261 19.908C12.5421 19.812 12.499 19.461 12.499 19V17C12.5 14.18 14.18 12.5 17 12.5ZM11.75 12.0401C11.75 12.4541 11.414 12.7901 11 12.7901C10.586 12.7901 10.25 12.4541 10.25 12.0401V8.04006C10.25 7.62606 10.586 7.29006 11 7.29006C11.414 7.29006 11.75 7.62606 11.75 8.04006V12.0401Z" fill="currentColor"/>
</svg>

<svg xmlns="http://www.w3.org/2000/svg" width="24" height="24" fill="none"><path fill="currentColor" fill-rule="evenodd" d="M19 14h-2c-2 0-3 1-3 3v2c0 2 1 3 3 3h2c2 0 3-1 3-3v-2c0-2-1-3-3-3Zm.6 3.52-1.66 1.67a.524.524 0 0 1-.71 0l-.83-.84c-.2-.19-.2-.51 0-.7.19-.2.51-.2.7 0l.48.48 1.32-1.32c.19-.19.51-.19.7 0 .2.2.2.51 0 .71ZM17.475 3.576a.751.751 0 0 1 1.05-1.072l2 1.96a.752.752 0 0 1-.524 1.286.748.748 0 0 1-.525-.214l-2-1.96ZM4.53 3.53l-2 2a.748.748 0 0 1-1.06 0 .75.75 0 0 1 0-1.061l2-2A.75.75 0 1 1 4.53 3.53ZM17 12.5h1.667S19 12.479 19 12c0-4.42-3.58-8-8-8a7.998 7.998 0 0 0-4.603 14.537L4.469 20.47a.75.75 0 0 0 1.062 1.06l2.218-2.224A7.96 7.96 0 0 0 11 20c.414 0 .828-.031 1.227-.092.316-.096.273-.447.273-.908v-2c.001-2.82 1.681-4.5 4.501-4.5Zm-5.25-.46a.75.75 0 0 1-1.5 0v-4a.75.75 0 0 1 1.5 0v4Z" clip-rule="evenodd"/></svg>
